!!!OTL:Hirtenknabens Fruehlingslied.
!!!OTL-incipit:WENN DAS ERSTE VOEGLEIN SINGT
!!!COM: O. Jahn
!!!ARE: Europa, Mitteleuropa, Deutschland
!!!SCT: F0246
!!!TXL: @@DE
!!!YEM: Copyright 1995, estate of Helmut Schaffrath.
**kern	**text
*ICvox	*
*M3/4	*
*k[b-]	*
*F:	*
=1	=1
!LO:TX:a:t=Andantino grazioso.	!
{8.cc	Wenn
16bn	das
4.dd	er-
8cc	-ste
=2	=2
8cc	Vögl-
8e	-lein
4g	singt,
4r}	.
=3	=3
{4.ee	Feld
8dd	und
8cc	Thal
8b-	und
=4	=4
8.a	Wald
16b-	erklingt,
4cc	.
4r}	.
=5	=5
{8ff	lau-
8ee	-e
8dd	mil-
8cc	-de
8.b-	Lüs-
16a	-te
=6	=6
8g	wehn,
8r}	.
{[2dd	ja,
=7	=7
8dd]	.
8cc	da
8b-	ist
8g	es
8d	wunder-
8e	.
=8	=8
4f	-schön.
4r}	.
{8.a	Wenn
16b-	die
=9	=9
4.cc	blau-
8a	-en
8dd	Veilchen
8cc	.
=10	=10
4cc	blühn,
4g}	.
{8.g	muntre
16a	.
=11	=11
8b-	Schwalben
8g	.
4.ee	fern
8dd	her
=12	=12
2cc	ziehn,
4r}	.
=13	=13
{8.a	Klapperstorch
16cc	.
4.ff	.
8ff	zu
=14	=14
8.ff	Re-
16g	-ste
2g}	trägt,
=15	=15
{8cc	ja,
8cc#	da
8ee	wird
8dd	das
8b-	Herz
8g	be-
=16	=16
4f	-wegt.
4r}	.
{8e	Al-
8g	-les
=17	=17
8cc	ist
8bn	so
8dd	lieb
8cc	und
4g}	hold,
=18	=18
{8e	Sonnenschein
8f	.
8g	.
8a	ist
8b-	lau-
8cc	-ter
=19	=19
4dd}	Gold,
{8ff	Bächleins
8ff	.
8ee	Well's
8dd	sind
=20	=20
8dd	Sil-
16cc	-ber-
16ff	.
4.a	-schein,
8r}	.
=21	=21
{8ee	Al-
8dd	-les,
8dd	Al-
8cc	-les
8b-	will
8g	sich
=22	=22
2f	freun!
4r}	.
==	==
!!!AGN: Jugend - Lied, Jahreszeiten, Fruehling
!!!ONB: ESAC (Essen Associative Code) Database: FINK
!!!AMT: simple triple
!!!AIN: vox
!!!EED: Helmut Schaffrath
!!!EEV: 1.0
!!!GTL: Jugendlieder
!!Text: Loehr
!!!source: Musikalischer Hausschatz der Deutschen. Eine Sammlung von über 1000 Liedern und Gesängen mit Singstimmen und Klavierbegleitung. Leipzig, Litterarisches Verlags-Haus.
!!!page: 147
!!!ENC: Anna Maria Matuszewska
!!!EEV: 2025/03/12
*-	*-
